app/images/search.svg

<svg height="17" viewBox="0 0 17 17" width="17" xmlns="http://www.w3.org/2000/svg"><path d="m2.01875 6.90625c0-2.65625 2.23125-4.8875 4.8875-4.8875s4.78125 2.125 4.78125 4.8875c0 2.65625-2.125 4.78125-4.78125 4.78125-2.7625 0-4.8875-2.125-4.8875-4.78125zm14.55625 8.18125-4.25-4.25c.85-1.16875 1.275-2.55 1.275-4.0375.10625-3.71875-2.975-6.8-6.69375-6.8-3.825 0-6.90625 3.08125-6.90625 6.90625s3.08125 6.90625 6.90625 6.90625c1.275 0 2.55-.425 3.50625-1.0625l4.25 4.25z" fill="#9b9b9b"/></svg>

<?xml version="1.0" encoding="UTF-8"?>
<svg width="17px" height="17px" viewBox="0 0 17 17" version="1.1" xmlns="http://www.w3.org/2000/svg" xmlns:xlink="http://www.w3.org/1999/xlink">
    <!-- Generator: Sketch 50.2 (55047) - http://www.bohemiancoding.com/sketch -->
    <title>search</title>
    <desc>Created with Sketch.</desc>
    <defs></defs>
    <g id="Add-Tokens" stroke="none" stroke-width="1" fill="none" fill-rule="evenodd">
        <g id="Metamascara---add-from-token-list-Copy-3" transform="translate(-345.000000, -350.000000)" fill="#9B9B9B" fill-rule="nonzero">
            <g id="search" transform="translate(345.000000, 350.000000)">
                <path d="M2.01875,6.90625 C2.01875,4.25 4.25,2.01875 6.90625,2.01875 C9.5625,2.01875 11.6875,4.14375 11.6875,6.90625 C11.6875,9.5625 9.5625,11.6875 6.90625,11.6875 C4.14375,11.6875 2.01875,9.5625 2.01875,6.90625 Z M16.575,15.0875 L12.325,10.8375 C13.175,9.66875 13.6,8.2875 13.6,6.8 C13.70625,3.08125 10.625,0 6.90625,0 C3.08125,0 0,3.08125 0,6.90625 C0,10.73125 3.08125,13.8125 6.90625,13.8125 C8.18125,13.8125 9.45625,13.3875 10.4125,12.75 L14.6625,17 L16.575,15.0875 Z" id="Page-1"></path>
            </g>
        </g>
    </g>
</svg>
